X:1
T:They Call It Stormy Monday
C:1947 - Aaron Walker a.k.a. T-Bone Walker
Z:www.realbook.site
L:1/8
M:12/8
I:linebreak $
K:G
V:1 treble nm=" " snm=" "
V:1
|:"G9" z3 z G_B GAE G G2 |"C9" z3 z z E- E2 _B GAE |"G9" G6"Ab9" z3 z3 |"G9" z12 |$ %4
"C9" z3 z Gd _Bcd B G2 | z3 z3 z Gc- c2 c |"G9" _BGG D3"Am7" z3 z3 |"Bm7" z12"Bbm7" |$ %8
"Am7" z3 z cc d3 z3 |"Eb9" z3 z z E-"D9" E_BG ccB |"G9" G6"C9" z3 z3 |"G9" z12"D+" :| %12

